X:655
T: Maghera Mountain
M: C|
L: 1/8
C: Martin Hayes (via IRTRAD)
R: Reel
K: Gdor
d2 cA BGGF|DGGF GABc|d2 cA BGGB|AFcF dFcF|
d2 cA BGGF|DGGF GBAG|FGAc fcAc|1 B/c/B AB GABc :|2\
B/c/B AB GBAG||
FGAc f2ef|g2 ga gfef|ecgc acgc|ecgc acgc|
BGGF G3B|AFFE F2 GA|Bdgd fdcd |1 BdAB GBAG :|2\
BdAB GABc||
